X:95
T:Wind Mill. Ru2.095, The
%%VWML:RutherfordVol2-2249-p48-0
F:http://www.vwml.org/record/RutherfordVol2/2249/p48
B:RUTHERFORD Complete Collection of 200 Country Dances Vol.2; 1759.
Z:vmp.Mike Hicken 2015 www.village-music-project.org.uk
M:6/8
Q:3/8=110
K:F
f2F G2A|Bcd efg|fga gab|agf gec|
f2F G2A|Bcd efg|fga bag|f3 F3 :|
|: f2g afd|e2f gec|d2e fed|cdB A2B|
cde fga|def gab|agf cfe|f3F3 |]
W:
W: Cast off 1 Cu: & Right Hands across with the 3d Cu: .|
W: Cast up again & left hands across with the 2d Cu: :|
W: Cross over one Cu & turn .|.  Hands round all Six :|.
T:La Badin. Ru2.096
T:Badin. Ru2.096, La
L:1/8
B:RUTHERFORD Complete Collection of 200 Country Dances Vol.2; 1759.
Z:vmp.Mike Hicken 2015 www.village-music-project.org.uk
M:2/4
Q:1/4=140
K:Bb
B2 (3dcB|g>edc|B2 (3dcB|AFAF|B2 (3dcB|g>edc|(3def (3dcB|Tc2B2 :|
|: B2 (3dcB|bBbB|B2 (3dcB|AFAF|B2 (3dcB|gedc|dfdB|Tc2B2 :|
W:
W: Cast off two Cu: .|  Cast up one Cu: & cross up
W: to the top :|  Foot it Contrary sides & turn
W: .|.  then to your Partner and turn & lead into
W: the Second Cu: Place :|.
